icons/cert.svg

<svg width="16" height="16" viewBox="0 0 16 16" fill="none" xmlns="http://www.w3.org/2000/svg">
<path fill-rule="evenodd" clip-rule="evenodd" d="M8.70711 2.05026C8.31658 1.65973 7.68342 1.65973 7.29289 2.05026L6.34315 3H5C4.44771 3 4 3.44772 4 4V5.34315L3.05025 6.2929C2.65973 6.68342 2.65973 7.31659 3.05025 7.70711L4 8.65686V10C4 10.5523 4.44771 11 5 11L6 11V15L8 13L10 15V11L11 11C11.5523 11 12 10.5523 12 10V8.65686L12.9497 7.70711C13.3403 7.31659 13.3403 6.68342 12.9497 6.2929L12 5.34315V4C12 3.44772 11.5523 3 11 3H9.65685L8.70711 2.05026ZM8 9C9.10457 9 10 8.10457 10 7C10 5.89543 9.10457 5 8 5C6.89543 5 6 5.89543 6 7C6 8.10457 6.89543 9 8 9Z" fill="#46C5C5"/>
</svg>

<svg xmlns="http://www.w3.org/2000/svg" width="16" height="16" fill="none"><path fill="#46C5C5" fill-rule="evenodd" d="M8.707 2.05a1 1 0 0 0-1.414 0l-.95.95H5a1 1 0 0 0-1 1v1.343l-.95.95a1 1 0 0 0 0 1.414l.95.95V10a1 1 0 0 0 1 1h1v4l2-2 2 2v-4h1a1 1 0 0 0 1-1V8.657l.95-.95a1 1 0 0 0 0-1.414l-.95-.95V4a1 1 0 0 0-1-1H9.657l-.95-.95ZM8 9a2 2 0 1 0 0-4 2 2 0 0 0 0 4Z" clip-rule="evenodd"/></svg>
